X:44
T:Bonny Kate   reel  Allan's #44
C:Trad/Anon
B:Allan's Irish Fiddler (pub. Mozart Allen,  Glascow) date unknown
Z:FROM ALLAN'S TO NOTEWORTHY, FROM NOTEWORTHY TO ABC, MIDI AND .TXT BY VINCE
BRENNAN Dec. 2002 (HTTP://WWW.SOSYOURMOM.COM)
I:abc2nwc
M:2/2
L:1/8
K:D
(ec)|:AFdB ABAF|DFAF E2(EB)|AFAd BGBd|cABc dcdB|
AFdB ABAF|DFAF E2(EB)|AFAd BGBd|cABc defg||
a2(fd) fafd|gfed cdef|gfef gbag|fgec defg|
a2(fd) fafd|gfed cdef|gfef gbag|[1faec dedB:|[2A3c d2|]
